src/assets/promotionicon.svg

<svg width="56" height="56" viewBox="0 0 56 56" fill="none" xmlns="http://www.w3.org/2000/svg">
<path d="M36.6139 17.3275V6.46136C36.6139 6.09305 36.4254 5.75059 36.1153 5.55244C35.8051 5.35536 35.4163 5.33059 35.0814 5.48567L19.144 12.9229H12.9216C6.98342 12.9229 2.15234 17.754 2.15234 23.6921C2.15234 28.9303 5.91296 33.3015 10.8754 34.2611L12.6825 47.812C12.8947 49.4101 14.271 50.6152 15.8842 50.6152H20.306C20.9274 50.6152 21.5176 50.3471 21.9268 49.8797C22.336 49.4123 22.5234 48.7909 22.4416 48.1771L20.6937 35.0687L35.1374 40.8464C35.2656 40.8971 35.4013 40.9229 35.537 40.9229C35.7491 40.9229 35.9602 40.8594 36.1411 40.7377C36.4362 40.5363 36.6139 40.2035 36.6139 39.846V30.0567C39.6648 29.542 41.9985 26.8884 41.9985 23.6921C41.9985 20.4958 39.6648 17.8423 36.6139 17.3275ZM4.30619 23.6921C4.30619 18.9418 8.17127 15.0767 12.9216 15.0767H18.3062V32.3075H12.9216C8.17127 32.3075 4.30619 28.4424 4.30619 23.6921ZM15.8842 48.4614C15.3468 48.4614 14.887 48.0597 14.817 47.5277L13.0745 34.4614H18.4397L20.306 48.4614H15.8842ZM34.46 38.2554L20.46 32.6543V14.6858L34.46 8.15213V38.2554ZM36.6139 27.8469V19.5374C38.4673 20.0187 39.8446 21.6901 39.8446 23.6921C39.8446 25.6941 38.4673 27.3655 36.6139 27.8469Z" fill="#B30000"/>
<path d="M48.4623 23.692C48.4623 20.0897 46.6735 16.7427 43.6775 14.7374C43.1843 14.4057 42.5134 14.5382 42.1827 15.0325C41.851 15.5268 41.9835 16.1956 42.4778 16.5273C44.8772 18.1319 46.3084 20.8102 46.3084 23.692C46.3084 26.5739 44.8772 29.2522 42.4778 30.8568C41.9835 31.1885 41.851 31.8573 42.1827 32.3516C42.3895 32.6617 42.732 32.8287 43.0787 32.8287C43.2844 32.8287 43.4934 32.7694 43.6775 32.6467C46.6735 30.6414 48.4623 27.2933 48.4623 23.692Z" fill="#F9AFB2"/>
<path d="M46.9239 10.4342C46.4329 10.0939 45.7641 10.2145 45.4238 10.7013C45.0846 11.1891 45.203 11.8601 45.6909 12.2015C49.4493 14.8205 51.6926 19.1175 51.6926 23.6922C51.6926 28.267 49.4493 32.5628 45.692 35.183C45.2041 35.5233 45.0856 36.1942 45.4249 36.6831C45.6338 36.9825 45.9687 37.1441 46.309 37.1441C46.5212 37.1441 46.7355 37.0805 46.9239 36.9502C51.2586 33.9273 53.8464 28.9702 53.8464 23.6922C53.8464 18.4142 51.2586 13.4571 46.9239 10.4342Z" fill="#F9AFB2"/>
</svg>

<svg width="56" height="56" viewBox="0 0 56 56" fill="none" xmlns="http://www.w3.org/2000/svg">
    <path d="M36.615 17.328V6.462a1.079 1.079 0 0 0-1.532-.976l-15.938 7.437h-6.222c-5.938 0-10.77 4.831-10.77 10.77 0 5.237 3.761 9.609 8.724 10.568l1.807 13.551a3.239 3.239 0 0 0 3.202 2.803h4.422a2.154 2.154 0 0 0 2.135-2.438L20.695 35.07l14.444 5.778a1.088 1.088 0 0 0 1.004-.11 1.08 1.08 0 0 0 .472-.89v-9.79C39.666 29.542 42 26.889 42 23.692c0-3.196-2.334-5.85-5.385-6.364zM4.308 23.692c0-4.75 3.865-8.615 8.615-8.615h5.385v17.23h-5.385c-4.75 0-8.615-3.864-8.615-8.615zm11.578 24.77a1.08 1.08 0 0 1-1.068-.934l-1.742-13.066h5.365l1.867 14h-4.422zm18.576-10.206-14-5.602V14.686l14-6.534v30.104zm2.153-10.409v-8.31c1.854.482 3.231 2.153 3.231 4.155 0 2.002-1.377 3.674-3.23 4.155z" fill="#004498"/>
    <path d="M48.461 23.692c0-3.602-1.788-6.95-4.785-8.954a1.077 1.077 0 1 0-1.2 1.79 8.604 8.604 0 0 1 3.831 7.164 8.605 8.605 0 0 1-3.83 7.165 1.077 1.077 0 1 0 1.2 1.79 10.758 10.758 0 0 0 4.784-8.955z" fill="#F9AFB2"/>
    <path d="M46.923 10.434a1.078 1.078 0 0 0-1.233 1.768 14.016 14.016 0 0 1 6.002 11.49 14.02 14.02 0 0 1-6 11.491 1.078 1.078 0 0 0 .617 1.961c.212 0 .426-.063.614-.194a16.177 16.177 0 0 0 6.923-13.258 16.177 16.177 0 0 0-6.922-13.258z" fill="#F9AFB2"/>
</svg>
